symbols/web/sports_baseball/materialsymbolsoutlined/sports_baseball_wght200gradN25fill1_20px.svg

<svg xmlns="http://www.w3.org/2000/svg" height="20" width="20"><path d="M4.396 14.812q-.875-1-1.323-2.239-.448-1.24-.448-2.573 0-1.312.448-2.562.448-1.25 1.323-2.271 1.166.854 1.781 2.125.615 1.27.615 2.708 0 1.417-.615 2.698t-1.781 2.114ZM10 17.375q-1.375 0-2.646-.49-1.271-.489-2.271-1.427 1.209-1 1.896-2.427.688-1.427.688-3.031 0-1.625-.688-3.031-.687-1.407-1.896-2.427 1-.959 2.271-1.438T10 2.625q1.375 0 2.656.479 1.282.479 2.282 1.438-1.23 1-1.907 2.427T12.354 10q0 1.604.677 3.031t1.907 2.427q-1 .938-2.282 1.427-1.281.49-2.656.49Zm5.625-2.563q-1.167-.833-1.781-2.114-.615-1.281-.615-2.698 0-1.438.615-2.708.614-1.271 1.781-2.125.854 1.021 1.302 2.26.448 1.24.448 2.573 0 1.312-.448 2.562-.448 1.25-1.302 2.25Z"/></svg>

<svg xmlns="http://www.w3.org/2000/svg" height="20" width="20"><path d="M4.396 14.812Q3.521 13.812 3.073 12.573Q2.625 11.333 2.625 10Q2.625 8.688 3.073 7.438Q3.521 6.188 4.396 5.167Q5.562 6.021 6.177 7.292Q6.792 8.562 6.792 10Q6.792 11.417 6.177 12.698Q5.562 13.979 4.396 14.812ZM10 17.375Q8.625 17.375 7.354 16.885Q6.083 16.396 5.083 15.458Q6.292 14.458 6.979 13.031Q7.667 11.604 7.667 10Q7.667 8.375 6.979 6.969Q6.292 5.562 5.083 4.542Q6.083 3.583 7.354 3.104Q8.625 2.625 10 2.625Q11.375 2.625 12.656 3.104Q13.938 3.583 14.938 4.542Q13.708 5.542 13.031 6.969Q12.354 8.396 12.354 10Q12.354 11.604 13.031 13.031Q13.708 14.458 14.938 15.458Q13.938 16.396 12.656 16.885Q11.375 17.375 10 17.375ZM15.625 14.812Q14.458 13.979 13.844 12.698Q13.229 11.417 13.229 10Q13.229 8.562 13.844 7.292Q14.458 6.021 15.625 5.167Q16.479 6.188 16.927 7.427Q17.375 8.667 17.375 10Q17.375 11.312 16.927 12.562Q16.479 13.812 15.625 14.812Z"/></svg>
